X: 519
T: The New Town of Edinburgh Assemblies
R: strathspey
B: "Preston's Twenty Four Country Dances for the Year 1804", Tho. Preston, ed. p.220
F: http://imslp.org/wiki/24_Country_Dances_for_the_Year_1804_(Preston_(publisher),_Thomas)
N: 2nd strain has initial repeat, but no final repeat.
M: C|
L: 1/16
K: Em
B2 |\
E3B EFGE E2B2G2E2 | DA3 FGAF D2A2F2D2 |\
E3BG3B E2F2G2A2 | Bd3 BAGF G2E2E :|
|: f2 |\
ge3 bagf g2e2-e2f2 | d2a2 (fg)(ag) f2d2-d2f2 |\
g3e (fe)(d^c) d2B2 A2F2 | (GA)(Bd) (BA)(GF) G2E2-E2f2 |
g3e (ba)(gf) g2e2-e2f2 | da3 (fg)(ag) f2d2-d2f2 |\
g2e2f2d2 e2^c2d2B2 | Bd3 BAGF G2E2E2 |]
% - - - - - - - - - - - - - - - - - - - - - - - - -
%%begintext align
%% Set & change sides, back again, lead down the
%% middle up again, Allemande, swing corners
%% & foot it outsides.
%%endtext

%%sep 1 1 500
